svgs/duotone/meter-droplet.svg

<svg xmlns="http://www.w3.org/2000/svg" viewBox="0 0 640 512"><!--! Font Awesome Pro 6.4.0 by @fontawesome - https://fontawesome.com License - https://fontawesome.com/license (Commercial License) Copyright 2023 Fonticons, Inc. --><defs><style>.fa-secondary{opacity:.4}</style></defs><path class="fa-primary" d="M429.2 347.3l75.3-141.2c4.6-8.7 13.7-14.1 23.5-14.1s18.9 5.4 23.5 14.1l75.3 141.2c8.7 16.2 13.2 34.3 13.2 52.7c0 61.9-50.1 112-112 112s-112-50.1-112-112c0-18.4 4.5-36.5 13.2-52.7z"/><path class="fa-secondary" d="M400.6 467.3C359.5 495.5 309.7 512 256 512C114.6 512 0 397.4 0 256S114.6 0 256 0C366.8 0 461.2 70.4 496.8 169c-8.5 5.3-15.7 12.9-20.6 22.1L400.9 332.2C389.8 353.1 384 376.4 384 400c0 24.3 6 47.2 16.6 67.3zM160 128c-17.7 0-32 14.3-32 32v32c0 17.7 14.3 32 32 32s32-14.3 32-32V160c0-17.7-14.3-32-32-32zm96 0c-17.7 0-32 14.3-32 32v32c0 17.7 14.3 32 32 32s32-14.3 32-32V160c0-17.7-14.3-32-32-32zm96 0c-17.7 0-32 14.3-32 32v32c0 17.7 14.3 32 32 32s32-14.3 32-32V160c0-17.7-14.3-32-32-32z"/></svg>

<svg xmlns="http://www.w3.org/2000/svg" viewBox="0 0 640 512"><!--! Font Awesome Pro 6.3.0 by @fontawesome - https://fontawesome.com License - https://fontawesome.com/license (Commercial License) Copyright 2023 Fonticons, Inc. --><defs><style>.fa-secondary{opacity:.4}</style></defs><path class="fa-primary" d="M429.2 347.3L504.5 206.1C509.1 197.4 518.2 192 528 192C537.8 192 546.9 197.4 551.5 206.1L626.8 347.3C635.5 363.5 640 381.6 640 400C640 461.9 589.9 512 528 512C466.1 512 416 461.9 416 400C416 381.6 420.5 363.5 429.2 347.3H429.2z"/><path class="fa-secondary" d="M400.6 467.3C359.5 495.5 309.7 512 256 512C114.6 512 0 397.4 0 256C0 114.6 114.6 0 256 0C366.8 0 461.2 70.43 496.8 168.1C488.3 174.3 481.1 181.9 476.2 191.1L400.9 332.2C389.8 353.1 384 376.4 384 400C384 424.3 390 447.2 400.6 467.3V467.3zM128 160V192C128 209.7 142.3 224 160 224C177.7 224 192 209.7 192 192V160C192 142.3 177.7 128 160 128C142.3 128 128 142.3 128 160zM224 160V192C224 209.7 238.3 224 256 224C273.7 224 288 209.7 288 192V160C288 142.3 273.7 128 256 128C238.3 128 224 142.3 224 160zM320 160V192C320 209.7 334.3 224 352 224C369.7 224 384 209.7 384 192V160C384 142.3 369.7 128 352 128C334.3 128 320 142.3 320 160z"/></svg>
